X:131
T:Hard Times Come again no more
C:Stephen Foster
S:Jim Coon to CoMandoList TOW
M:2/4
L:1/8
Q:1/4=110
K:D
"D"z2 DE|"D"F2 FE|FA2F|ED DE|!
F2 "Bm"A-B|"D"A2 F2|FD "A7"EE|"D"D2-D2:|!
"D"z2 FG|A3A|A2 ^GA|"Bm"B2-B2|!
"D"A2-A2|d2 A2|"Bm"B2 A2|"D"FF ED|!
E2 DE|F2  FE|FA2F|ED DE|!
F2 "Bm"A-B|A2 F2|FD "A7"EE|"D"D2-D2||!
W:
W:1.  Let us pause in life's pleasures and count it's many tears
W:While we all sup sorrow with the  poor>
W:There's a song that will linger forever in our ears,
W:"Oh Hard Times come again no more".
W:
W:chorus:  "Tis the song, the sigh of the wea-ry;
W:Hard TImes, Hard TImes, come again no more,
W:Many days you have lingered around my cabin door,
W:Oh! Hard TImes, come  again no more.
W:
W:2. While we seek mirth and beauty and music light and gay,
W:There are frail forms fainting at the door,
W:Tho' their voices are silent their pleading looks still say,
W: "Oh! Hard Times, come again no more
